X:115
T: DIE FRAU WOLLT WALLFAHRN GEHN
N: Z0115
O: Europa, Mitteleuropa, Deutschland, Bayern
R: Erzaehlung, lustige Romanze
M: 3/8
L: 1/16
K: C
G,2C2C2 | B,2DB,C2 | E4F2 | G6 |
F2A2F2 | E2G2E2 | D2FEFD | C2E2G2 |
F2A2F2 | E2G2E2 | D2FEFD | C2z4

@@@ Tune index: 9873
